static/assets/images/networks/ethereum.svg

<svg xmlns="http://www.w3.org/2000/svg" fill="none" viewBox="0 0 512 512"><path fill="#E6E6E6" d="M512 256a256 256 0 0 1-74.981 181.019 255.997 255.997 0 0 1-362.038 0A256 256 0 1 1 512 256"/><path fill="#343434" d="m255.742 46.08-2.628 9.526V333.18l2.628 2.628 128.768-75.881z"/><path fill="#8C8C8C" d="M255.744 46.08 126.976 259.926l128.768 75.881V46.08"/><path fill="#3C3C3B" d="m255.744 360.443-1.642 1.643v98.875l1.642 4.599 128.768-181.326z"/><path fill="#8C8C8C" d="M255.744 465.56V360.443l-128.768-76.209z"/><path fill="#141414" d="m255.744 335.807 128.768-75.88-128.768-58.8z"/><path fill="#393939" d="m126.976 259.926 128.768 75.881v-134.68z"/></svg>

<svg width="512" height="512" viewBox="0 0 512 512" fill="none" xmlns="http://www.w3.org/2000/svg">
<path d="M512 256C512 323.895 485.029 389.01 437.019 437.019C389.01 485.029 323.895 512 256 512C188.105 512 122.99 485.029 74.9807 437.019C26.9714 389.01 0 323.895 0 256C0 188.105 26.9714 122.99 74.9807 74.9807C122.99 26.9714 188.105 0 256 0C323.895 0 389.01 26.9714 437.019 74.9807C485.029 122.99 512 188.105 512 256Z" fill="#E6E6E6"/>
<path d="M255.742 46.08L253.114 55.6062V333.179L255.742 335.807L384.51 259.926L255.742 46.08Z" fill="#343434"/>
<path d="M255.744 46.08L126.976 259.926L255.744 335.807V201.127V46.08Z" fill="#8C8C8C"/>
<path d="M255.744 360.443L254.102 362.086V460.961L255.744 465.56L384.512 284.234L255.744 360.443Z" fill="#3C3C3B"/>
<path d="M255.744 465.56V360.443L126.976 284.234L255.744 465.56Z" fill="#8C8C8C"/>
<path d="M255.744 335.807L384.512 259.927L255.744 201.127V335.807Z" fill="#141414"/>
<path d="M126.976 259.926L255.744 335.807V201.127L126.976 259.926Z" fill="#393939"/>
</svg>
